X:1
T:Title
%%score ( 1 2 ) ( 3 4 )
L:1/8
Q:1/4=100
M:4/4
K:Eb
V:1 treble nm="Grand Piano, Soprano"
V:2 treble 
V:3 bass nm="Choir Pad, Satisfied (Dietrich)"
V:4 bass 
V:1
 [CE]2 [CE]2- [CE][CE][_DF][DG] | z2 c6 | [D=B][Ec] [_D_B]2 [DG]2 [DF]2 | z2 E6 | %4
w: By~Joseph~Lincoln~Hall * * * * *||||
 [CE]2 [CE]2- [CE][CE][_DF][DG] | [_DA][DB] c4- [Ec][Ec] | [D=B][Ec] [D_B]2 [DF]2 [DG]2 | %7
w: |||
 [DA]2 [_DB]4- [DB][Ec] | [D=B][Ec] [_D_B]>[CA] [CA]3 [CA] | [B,G][CA] [EG]>[_DF] [DF]3 [DF] | %10
w: |||
 [_D=E][DF] [F_d]2- [Fd][Fc] [FB]2 | [FA]2 B-[EB-] [DB-][DB-][EB][Ee] | %12
w: ||
 [Fd][G_d] [Ac]>[Ac] [Ac]3 [Ac] | [=Ec][GB] [GB]>[FA] [FA]3 [FA] | [=EA][EB] [_Ec]2 [Ae]2 [Ec]2 | %15
w: |||
 [_DB]2 [CA]6- | [CA]2 z2 z4 |] %17
w: ||
V:2
 x8 | [_DA][DB] C4 E[Ec] | x8 | [_DE]2 C2 D2 C2 | x8 | z2 C4 z2 | x8 | x8 | x8 | x8 | x8 | %11
 z2 .E2 z4 | x8 | x8 | x8 | x8 | x8 |] %17
V:3
 [A,,A,]2 [A,,A,]2- [A,,A,][A,,A,][A,,F,][A,,F,] | [A,,=E,][A,,E,] _E,2 F,2 A,[A,,A,] | %2
 [A,,A,][A,,A,] [E,G,]2 [E,B,]2 [E,A,]2 | [E,G,]2 [A,,A,]2 [B,,G,]2 [C,A,]2 | %4
 [A,,A,]2 [A,,A,]2- [A,,A,][A,,A,][A,,F,][A,,F,] | [A,,=E,][A,,E,] _E,2 F,2 A,[A,,A,] | %6
 [A,,A,][A,,A,] [B,,F,]2 [B,,A,]2 [B,,G,]2 | [B,,F,]2 [E,G,]6 | z2 [A,,A,]>[A,,A,] .[A,,A,]4 | %9
 z2 [_D,A,]>[D,A,] [D,A,]3 [D,A,] | [_D,G,][D,A,] [B,,B,]2- [B,,B,][C,=A,] [D,B,]2 | %11
 [D,B,]2 [E,G,][E,G,] [B,,F,][B,,A,] .[E,G,]2 | z2 [A,E]>[A,E] .[A,E]4 | %13
 z2 [F,C]>[F,C] [F,C]3 [F,C] | [_D,_D][D,D] [E,A,]2 [E,C]2 [E,A,]2 | [E,G,]2 [A,,E,A,]6- | %16
 [A,,E,A,]2 z2 z4 |] %17
V:4
 x8 | z2 A,,6 | x8 | x8 | x8 | z2 A,,6 | x8 | x8 | x8 | x8 | x8 | x8 | x8 | x8 | x8 | x8 | x8 |] %17

